src/assets/icons/plugins-icons.svg

<svg width="25" height="25" viewBox="0 0 25 25" fill="none" xmlns="http://www.w3.org/2000/svg">
<path fill-rule="evenodd" clip-rule="evenodd" d="M13.5806 0.447618L16.7569 3.62397L18.6607 1.72023C19.9364 0.444528 22.0047 0.444528 23.2804 1.72023C24.5561 2.99591 24.5561 5.06422 23.2804 6.33992L21.3767 8.2437L24.5523 11.4193C25.1491 12.0162 25.1491 12.9838 24.5523 13.5806L21.3769 16.7561L20.2002 15.5794C18.9244 14.3037 16.8562 14.3037 15.5805 15.5794C14.3048 16.8551 14.3048 18.9235 15.5805 20.1992L16.7572 21.3759L13.5807 24.5524C12.9839 25.1492 12.0162 25.1492 11.4194 24.5524L8.24392 21.3769L6.34152 23.2793C5.06583 24.555 2.99752 24.555 1.72182 23.2793C0.446138 22.0036 0.446138 19.9352 1.72182 18.6596L3.62424 16.7572L0.44762 13.5806C-0.149206 12.9838 -0.149207 12.0161 0.447619 11.4193L3.62387 8.24304L4.80095 9.42012C6.07665 10.6958 8.14495 10.6958 9.42065 9.42012C10.6963 8.14443 10.6963 6.07611 9.42065 4.80043L8.24357 3.62334L11.4193 0.44762C12.0161 -0.149206 12.9838 -0.149207 13.5806 0.447618Z" fill="#32324D"/>
</svg>

<svg width="25" height="25" fill="none" xmlns="http://www.w3.org/2000/svg"><path fill-rule="evenodd" clip-rule="evenodd" d="M13.58.448l3.177 3.176L18.66 1.72a3.267 3.267 0 114.62 4.62l-1.904 1.904 3.175 3.175a1.528 1.528 0 010 2.162l-3.175 3.175L20.2 15.58a3.267 3.267 0 10-4.62 4.62l1.177 1.177-3.176 3.176a1.528 1.528 0 01-2.162 0l-3.175-3.175-1.902 1.902a3.267 3.267 0 11-4.62-4.62l1.902-1.902-3.176-3.176a1.528 1.528 0 010-2.162l3.176-3.176L4.8 9.42a3.267 3.267 0 004.62-4.62L8.244 3.623 11.419.448a1.528 1.528 0 012.162 0z" fill="#32324D"/></svg>
